public/img/assets/icons/ufo.svg

<svg width="71" height="70" viewBox="0 0 71 70" fill="none" xmlns="http://www.w3.org/2000/svg">
<path d="M49.9375 26.2792C58.7458 28.4346 64.6667 32.4713 64.6667 37.1117C64.6667 44.0154 51.6 49.5833 35.5 49.5833C19.4 49.5833 6.33337 44.0154 6.33337 37.1117C6.33337 32.4742 12.2834 28.4054 21.1209 26.25" stroke="#6892B9" stroke-width="1.5" stroke-linecap="round" stroke-linejoin="round"/>
<path d="M20.9167 26.25C20.9167 29.4729 27.4472 32.0833 35.5001 32.0833C43.553 32.0833 50.0834 29.4729 50.0834 26.25V26.1479C50.0834 18.1504 43.553 11.6666 35.5001 11.6666C27.4472 11.6666 20.9167 18.1504 20.9167 26.1479V26.25Z" stroke="#6892B9" stroke-width="1.5" stroke-linecap="round" stroke-linejoin="round"/>
<path d="M26.9477 42.3337C26.6059 42.6079 26.1981 42.7874 25.7651 42.8542C25.332 42.9211 24.8891 42.873 24.4805 42.7147C24.0719 42.5565 23.7121 42.2936 23.4372 41.9525C23.1622 41.6114 22.9817 41.204 22.9137 40.7712" stroke="#6892B9" stroke-width="1.5" stroke-linecap="round"/>
<path d="M16.2072 38.0006C15.7762 37.9798 15.3704 37.8757 15.0305 37.6989C14.6906 37.5221 14.4285 37.2787 14.2705 36.9931C14.1124 36.7075 14.064 36.3898 14.1301 36.0717C14.1962 35.7537 14.3745 35.4464 14.647 35.1808" stroke="#6892B9" stroke-width="1.5" stroke-linecap="round"/>
<path d="M56.1048 38.0006C56.5358 37.9798 56.9416 37.8757 57.2815 37.6989C57.6214 37.5221 57.8835 37.2787 58.0416 36.9931C58.1996 36.7075 58.248 36.3898 58.1819 36.0717C58.1158 35.7537 57.9376 35.4464 57.665 35.1808" stroke="#6892B9" stroke-width="1.5" stroke-linecap="round"/>
<path d="M45.8711 42.4905C46.2199 42.7556 46.6323 42.9243 47.067 42.9797C47.5016 43.0352 47.9431 42.9755 48.3474 42.8065C48.7517 42.6376 49.1044 42.3654 49.3703 42.0172C49.6363 41.6689 49.806 41.2569 49.8625 40.8225" stroke="#6892B9" stroke-width="1.5" stroke-linecap="round"/>
<path d="M33.8966 43.3069C34.1137 43.6875 34.427 44.0043 34.8051 44.2256C35.1832 44.447 35.6129 44.5651 36.051 44.5681C36.4891 44.5711 36.9204 44.4588 37.3015 44.2427C37.6826 44.0265 38.0002 43.714 38.2225 43.3364" stroke="#6892B9" stroke-width="1.5" stroke-linecap="round"/>
<line x1="35.25" y1="67.25" x2="35.25" y2="53.75" stroke="#6892B9" stroke-width="1.5" stroke-linecap="round"/>
<line x1="0.75" y1="-0.75" x2="13.629" y2="-0.75" transform="matrix(0.320982 -0.947085 0.890022 0.455918 19 65.5411)" stroke="#6892B9" stroke-width="1.5" stroke-linecap="round"/>
<line x1="0.75" y1="-0.75" x2="13.629" y2="-0.75" transform="matrix(-0.320982 -0.947085 -0.890022 0.455918 52 65.5411)" stroke="#6892B9" stroke-width="1.5" stroke-linecap="round"/>
</svg>

<svg xmlns="http://www.w3.org/2000/svg" fill="none" viewBox="0 0 71 70"><path d="M49.94 26.28c8.8 2.15 14.73 6.2 14.73 10.83 0 6.9-13.07 12.47-29.17 12.47S6.33 44.02 6.33 37.11c0-4.64 5.95-8.7 14.8-10.86" stroke="#6892B9" stroke-linecap="round" stroke-linejoin="round" stroke-width="1.5"/><path d="M20.92 26.25c0 3.22 6.53 5.83 14.58 5.83s14.58-2.6 14.58-5.83v-.1c0-8-6.53-14.48-14.58-14.48a14.53 14.53 0 0 0-14.58 14.48v.1Z" stroke="#6892B9" stroke-linecap="round" stroke-linejoin="round" stroke-width="1.5"/><path d="M26.95 42.33a2.5 2.5 0 0 1-4.04-1.56M16.21 38a2.86 2.86 0 0 1-1.18-.3 1.8 1.8 0 0 1-.76-.7c-.16-.3-.2-.61-.14-.93.07-.32.24-.62.52-.89M56.1 38c.44-.02.84-.12 1.18-.3.34-.18.6-.42.76-.7.16-.3.2-.61.14-.93a1.76 1.76 0 0 0-.52-.89M45.88 42.5a2.5 2.5 0 0 0 4-1.67M33.9 43.3a2.5 2.5 0 0 0 4.32.04m-2.97 23.9V53.76" stroke="#6892B9" stroke-linecap="round" stroke-width="1.5"/><path d="M.75-.75h12.88" stroke="#6892B9" stroke-linecap="round" stroke-width="1.5" transform="matrix(.32098 -.94708 .89002 .45592 19 65.54)"/><path d="M.75-.75h12.88" stroke="#6892B9" stroke-linecap="round" stroke-width="1.5" transform="matrix(-.32098 -.94708 -.89002 .45592 52 65.54)"/></svg>
